X:11
T:Week 1
T:Part I: Outer Voice Counterpoint
M:4/4
L:1/2
Q:1/4=120
K:G
V:1
Bc|BB|dc|"^HC"A2|GG|FA|BA|"^AC"G2||
w:...C ...C ...O ...C ...C ...C ...C ...O ...C ...C ...C ...C ...C .
V:2
G,F,|G,E,|B,,C,|D,2|E,C,|D,C,|B,,D,|G,2 ||
w:G:~I V6/4 I vi I6 ii6 V vi IV V V4/2 I6 V7 I

